X:348
T:Oira Oira
Z:Jack Campin, http://www.campin.me.uk/
F:Jack Campin's Nine-Note Tunebook
% last edit 03-02-2013
N:good dance instruction video at http://www.youtube.com/watch?v=fWM96fBA4HQ
M:2/4
L:1/16
Q:1/4=90
K:G
d4   d3c |B2B2 B4  |d2d2 d2cB|d2d2 d2cB |
c4   c3B |A2A2 A4  |D2D2 E2F2|G4   G4  ||
G2GA BAG2|c2A2 c2A2|A2AB cBA2|d2B2 d2B2:|
G2GA BAG2|c2A2 c2A2|D2D2 E2F2|G4   G4  |]


% == Sephardic songs ========================================================

